X:99
T:Cooley's Reel
M:C|
L:1/8
S:Edor
R:Reel
K:EDor
"Em"EB {c}BA B2 EB | {c}B2 AB dB AG | "D"(3FED AD BD AD | FA  dB AD FD |
!
"Em"EB {c}BA B2 EB | {c}B2 AB de fg | "D"af (3gfe dB AF |1 "Em"DE FD EG
FE:|1 "Em"DE FD Eg fg :|!
|: "Em"eB (3BBB eB gB | eB (3BBB ge dB | "D"A2 FA dA FB | AD FA Bc df |
"Em"eB (3BBB eB gf | ed Bc de fg | af (3gfe "D"dB AF |1 DE FD "Em"Eg fg
:|2 DE FD "Em"EGFD :||
